Adwaita++/actions/22/edit-undo.svg

<svg height="22" viewBox="0 0 22 22" width="22" xmlns="http://www.w3.org/2000/svg">
  <path d="m7 2-5 3 5 3v-2h3c1.6793 0 3 1.3207 3 3s-1.3207 3-3 3h-5v2h5c2.7527 0 5-2.2473 5-5s-2.2473-5-5-5h-3z" fill="#444" transform="translate(3 3)"/>
</svg>

<svg xmlns="http://www.w3.org/2000/svg" width="22" height="22" viewBox="0 0 22 22">
 <defs>
  <style id="current-color-scheme" type="text/css">
   .ColorScheme-Text { color:#444444; } .ColorScheme-Highlight { color:#4285f4; }
  </style>
 </defs>
 <path style="fill:currentColor" class="ColorScheme-Text" d="M 7 2 L 2 5 L 7 8 L 7 6 L 10 6 C 11.6793 6 13 7.3207 13 9 C 13 10.6793 11.6793 12 10 12 L 5 12 L 5 14 L 10 14 C 12.7527 14 15 11.7527 15 9 C 15 6.2473 12.7527 4 10 4 L 7 4 L 7 2 z" transform="translate(3 3)"/>
</svg>
